X:1
T:False Knight on the Road
M:4/4
L:1/8
K:F
 C2 FA cc Ac| c2 A2 F4| FA c4c-G| A6 CC| FF F2 A2 GF| E6 F2| G6 A2|\
 F8|
